src/svx/res/symphony/spacing_tight.svg

<?xml version="1.0" encoding="UTF-8" standalone="no"?>
<svg
   xmlns:dc="http://purl.org/dc/elements/1.1/"
   xmlns:cc="http://creativecommons.org/ns#"
   xmlns:rdf="http://www.w3.org/1999/02/22-rdf-syntax-ns#"
   xmlns:svg="http://www.w3.org/2000/svg"
   xmlns="http://www.w3.org/2000/svg"
   xmlns:xlink="http://www.w3.org/1999/xlink"
   xmlns:sodipodi="http://sodipodi.sourceforge.net/DTD/sodipodi-0.dtd"
   xmlns:inkscape="http://www.inkscape.org/namespaces/inkscape"
   height="16"
   viewBox="0 0 24 16"
   width="24"
   version="1.1"
   id="svg16"
   sodipodi:docname="spacing_tight.svg"
   inkscape:version="1.0.1 (3bc2e813f5, 2020-09-07)">
  <metadata
     id="metadata22">
    <rdf:RDF>
      <cc:Work
         rdf:about="">
        <dc:format>image/svg+xml</dc:format>
        <dc:type
           rdf:resource="http://purl.org/dc/dcmitype/StillImage" />
        <dc:title></dc:title>
      </cc:Work>
    </rdf:RDF>
  </metadata>
  <defs
     id="defs20">
    <linearGradient
       inkscape:collect="always"
       xlink:href="#linearGradient842"
       id="linearGradient844"
       x1="3"
       y1="3"
       x2="3"
       y2="8"
       gradientUnits="userSpaceOnUse" />
    <linearGradient
       inkscape:collect="always"
       id="linearGradient842">
      <stop
         style="stop-color:#151515;stop-opacity:1"
         offset="0"
         id="stop838" />
      <stop
         style="stop-color:#4d4d4d;stop-opacity:1"
         offset="1"
         id="stop840" />
    </linearGradient>
  </defs>
  <sodipodi:namedview
     pagecolor="#808080"
     bordercolor="#666666"
     borderopacity="1"
     objecttolerance="10"
     gridtolerance="10"
     guidetolerance="10"
     inkscape:pageopacity="0"
     inkscape:pageshadow="2"
     inkscape:window-width="1920"
     inkscape:window-height="1043"
     id="namedview18"
     showgrid="true"
     inkscape:zoom="25.25"
     inkscape:cx="14.111218"
     inkscape:cy="4.9208463"
     inkscape:window-x="1920"
     inkscape:window-y="0"
     inkscape:window-maximized="1"
     inkscape:current-layer="svg16"
     inkscape:document-rotation="0">
    <inkscape:grid
       type="xygrid"
       id="grid867" />
  </sodipodi:namedview>
  <path
     id="path874"
     style="opacity:1;fill:#000000;stroke:#ffffff;stroke-width:2;stroke-linejoin:round;stroke-miterlimit:4;stroke-dasharray:none"
     d="m 2,3.0000001 v 5 h 1 1.5 c 0.8284303,0 1.5000003,-0.67157 1.5000003,-1.5000001 0,-0.5333018 -0.268198,-1.015272 -0.6875,-1.28125 C 5.4279583,5.00621 5.5000003,4.7588844 5.5000003,4.5 5.5000003,3.67157 4.8284303,3.0000001 4,3.0000001 H 3 2.5 Z M 3,4 H 4 C 4.27614,4 4.5,4.22386 4.5,4.5 4.5,4.77614 4.27614,5 4,5 H 3 Z M 3,6 H 4.5 C 4.7761403,6 5.0000003,6.22386 5.0000003,6.5 5.0000003,6.77614 4.7761403,7 4.5,7 H 3 Z" />
  <path
     id="path876"
     style="opacity:1;fill:#000000;stroke:#ffffff;stroke-width:2;stroke-linejoin:round;stroke-miterlimit:4;stroke-dasharray:none"
     d="m 9,3.0000001 v 5 h 1 1.5 c 0.82843,0 1.5,-0.67157 1.5,-1.5000001 v -2 C 13,3.67157 12.32843,3.0000001 11.5,3.0000001 H 10 Z M 10,4 h 1.5 C 11.77614,4 12,4.22386 12,4.5 V 5.09375 5.90625 6.5 C 12,6.77614 11.77614,7 11.5,7 H 10 Z" />
  <path
     style="fill:#e95420;fill-opacity:1;stroke:none;stroke-width:1px;stroke-linecap:butt;stroke-linejoin:miter;stroke-opacity:1"
     d="M 2,10 6.0000003,12 2,14 Z"
     id="path834-1"
     sodipodi:nodetypes="cccc" />
  <path
     style="fill:#e95420;fill-opacity:1;stroke:none;stroke-width:1px;stroke-linecap:butt;stroke-linejoin:miter;stroke-opacity:1"
     d="m 13,10 -4,2 4,2 z"
     id="path878"
     sodipodi:nodetypes="cccc" />
  <path
     id="path2-9"
     style="fill:url(#linearGradient844);fill-opacity:1"
     d="M 2,3 V 8.0000001 H 3 4.5 C 5.3284303,8.0000001 6,7.3284301 6,6.5 6,5.9666982 5.731802,5.484728 5.3125,5.21875 5.427958,5.00621 5.5,4.7588844 5.5,4.5 5.5,3.67157 4.8284303,3 4,3 H 3 2.5 Z m 7,0 v 5.0000001 h 1 1.5 c 0.82843,0 1.5,-0.67157 1.5,-1.5000001 v -2 C 13,3.67157 12.32843,3 11.5,3 H 10 Z M 3,4 H 4 C 4.27614,4 4.5,4.22386 4.5,4.5 4.5,4.77614 4.27614,5 4,5 H 3 Z m 7,0 h 1.5 C 11.77614,4 12,4.22386 12,4.5 V 5.09375 5.90625 6.5 C 12,6.77614 11.776016,6.9917119 11.5,7 H 10 Z M 3,6 H 4.5 C 4.7761403,6 5,6.22386 5,6.5 5,6.77614 4.7761403,7 4.5,7 H 3 Z"
     sodipodi:nodetypes="cccsscssccccccsssscccssscccssccsscccssscc" />
</svg>

<?xml version="1.0" encoding="UTF-8" standalone="no"?>
<svg
   xmlns:dc="http://purl.org/dc/elements/1.1/"
   xmlns:cc="http://creativecommons.org/ns#"
   xmlns:rdf="http://www.w3.org/1999/02/22-rdf-syntax-ns#"
   xmlns:svg="http://www.w3.org/2000/svg"
   xmlns="http://www.w3.org/2000/svg"
   xmlns:sodipodi="http://sodipodi.sourceforge.net/DTD/sodipodi-0.dtd"
   xmlns:inkscape="http://www.inkscape.org/namespaces/inkscape"
   height="16"
   viewBox="0 0 24 16"
   width="24"
   version="1.1"
   id="svg16"
   sodipodi:docname="spacing_tight.svg"
   inkscape:version="1.0.1 (3bc2e813f5, 2020-09-07)">
  <metadata
     id="metadata22">
    <rdf:RDF>
      <cc:Work
         rdf:about="">
        <dc:format>image/svg+xml</dc:format>
        <dc:type
           rdf:resource="http://purl.org/dc/dcmitype/StillImage" />
      </cc:Work>
    </rdf:RDF>
  </metadata>
  <defs
     id="defs20" />
  <sodipodi:namedview
     pagecolor="#ffffff"
     bordercolor="#666666"
     borderopacity="1"
     objecttolerance="10"
     gridtolerance="10"
     guidetolerance="10"
     inkscape:pageopacity="0"
     inkscape:pageshadow="2"
     inkscape:window-width="1920"
     inkscape:window-height="1011"
     id="namedview18"
     showgrid="true"
     inkscape:zoom="50.5"
     inkscape:cx="7.6297958"
     inkscape:cy="7.9644957"
     inkscape:window-x="0"
     inkscape:window-y="0"
     inkscape:window-maximized="1"
     inkscape:current-layer="svg16"
     inkscape:document-rotation="0">
    <inkscape:grid
       type="xygrid"
       id="grid867" />
  </sodipodi:namedview>
  <path
     style="opacity:0.7;fill:#000000;fill-opacity:1;stroke:#000000;stroke-width:2;stroke-linecap:butt;stroke-linejoin:round;stroke-miterlimit:4;stroke-dasharray:none;stroke-opacity:1"
     d="m 2,10 4,2 -4,2 z"
     id="path880"
     sodipodi:nodetypes="cccc" />
  <path
     style="opacity:0.7;fill:#000000;fill-opacity:1;stroke:#000000;stroke-width:2;stroke-linecap:butt;stroke-linejoin:round;stroke-miterlimit:4;stroke-dasharray:none;stroke-opacity:1"
     d="M 13,10 8.9999996,12 13,14 Z"
     id="path882"
     sodipodi:nodetypes="cccc" />
  <path
     id="path874"
     style="opacity:0.7;fill:#000000;stroke:#000000;stroke-width:2;stroke-linejoin:round;stroke-miterlimit:4;stroke-dasharray:none"
     d="M 2,3 V 8 H 3 4.5 C 5.32843,8 6,7.32843 6,6.5 6,5.9666982 5.731802,5.484728 5.3125,5.21875 5.427958,5.00621 5.5,4.7588844 5.5,4.5 5.5,3.67157 4.82843,3 4,3 H 3 2.5 Z M 3,4 H 4 C 4.27614,4 4.5,4.22386 4.5,4.5 4.5,4.77614 4.27614,5 4,5 H 3 Z M 3,6 H 4.5 C 4.77614,6 5,6.22386 5,6.5 5,6.77614 4.77614,7 4.5,7 H 3 Z" />
  <path
     id="path876"
     style="opacity:0.7;fill:#000000;stroke:#000000;stroke-width:2;stroke-linejoin:round;stroke-miterlimit:4;stroke-dasharray:none"
     d="M 8.9999996,3 V 8 H 10 11.5 C 12.32843,8 13,7.32843 13,6.5 v -2 C 13,3.67157 12.32843,3 11.5,3 H 10 Z M 10,4 h 1.5 C 11.77614,4 12,4.22386 12,4.5 V 5.09375 5.90625 6.5 C 12,6.77614 11.77614,7 11.5,7 H 10 Z" />
  <path
     id="path2-9"
     style="fill:#ffffff"
     d="M 2,3 V 8 H 3 4.5 C 5.32843,8 6,7.32843 6,6.5 6,5.9666982 5.731802,5.484728 5.3125,5.21875 5.427958,5.00621 5.5,4.7588844 5.5,4.5 5.5,3.67157 4.82843,3 4,3 H 3 2.5 Z M 3,4 H 4 C 4.27614,4 4.5,4.22386 4.5,4.5 4.5,4.77614 4.27614,5 4,5 H 3 Z M 3,6 H 4.5 C 4.77614,6 5,6.22386 5,6.5 5,6.77614 4.77614,7 4.5,7 H 3 Z" />
  <path
     id="path861"
     style="fill:#ffffff"
     d="M 8.9999996,3 V 8 H 10 11.5 C 12.32843,8 13,7.32843 13,6.5 v -2 C 13,3.67157 12.32843,3 11.5,3 H 10 Z M 10,4 h 1.5 C 11.77614,4 12,4.22386 12,4.5 V 5.09375 5.90625 6.5 C 12,6.77614 11.77614,7 11.5,7 H 10 Z" />
  <path
     style="fill:#aee3f8;fill-opacity:1;stroke:none;stroke-width:1px;stroke-linecap:butt;stroke-linejoin:miter;stroke-opacity:1"
     d="m 2,10 4,2 -4,2 z"
     id="path834-1"
     sodipodi:nodetypes="cccc" />
  <path
     style="fill:#aee3f8;fill-opacity:1;stroke:none;stroke-width:1px;stroke-linecap:butt;stroke-linejoin:miter;stroke-opacity:1"
     d="M 13,10 8.9999996,12 13,14 Z"
     id="path878"
     sodipodi:nodetypes="cccc" />
</svg>
